X:1
T:Blessed Quietness
M:3/4
L:1/8
K:F
 FG| AF F2 C2|D-F F2 FG| AF C2 A2| G4 FG| AF F2 C2|D-F F2 FD| CF A2 G2|\
 F4 EF| GC C2 FG| AF F2 FE| DE F2 A2| G4 FG| AF F2 CC| DF F2 FD| CF A2 G2|\
 F4||
